JumpStart/resources/icon-mask.svg

<svg width="14" height="20" viewBox="0 0 14 20" xmlns="http://www.w3.org/2000/svg"><title>Shape</title><path d="M9.5 2h.005H9.5zm0 0L7 8l5 2.898L4.5 18 7 12 2 9.1 9.5 2zm0-2c-.562.012-1.03.22-1.38.55L.625 7.647c-.458.435-.685 1.06-.61 1.686.072.626.437 1.182.982 1.498l3.482 2.02-1.826 4.382c-.362.87-.066 1.88.712 2.416.344.236.74.354 1.135.354.497 0 .992-.186 1.374-.548l7.5-7.103c.458-.433.685-1.057.61-1.684-.073-.627-.438-1.183-.982-1.498L9.52 7.15l1.79-4.293c.122-.26.19-.55.19-.857 0-1.102-.89-1.996-2-2z" fill="#DA5A47" fill-rule="evenodd"/></svg>

<?xml version="1.0" encoding="UTF-8" standalone="no"?>
<svg width="14px" height="20px" viewBox="0 0 14 20" version="1.1" xmlns="http://www.w3.org/2000/svg" xmlns:xlink="http://www.w3.org/1999/xlink" xmlns:sketch="http://www.bohemiancoding.com/sketch/ns">
    <!-- Generator: Sketch 3.4 (15588) - http://www.bohemiancoding.com/sketch -->
    <title>Shape</title>
    <desc>Created with Sketch.</desc>
    <defs></defs>
    <g id="Page-1" stroke="none" stroke-width="1" fill="none" fill-rule="evenodd" sketch:type="MSPage">
        <path d="M9.5,2 L9.505,2 L9.5,2 Z M9.5,2 L7,8 L12,10.898 L4.5,18 L7,12 L2,9.1 L9.5,2 L9.5,2 Z M9.5,0 C8.938,0.012 8.471,0.219 8.121,0.551 L0.624,7.646 C0.166,8.081 -0.061,8.705 0.014,9.332 C0.086,9.958 0.451,10.514 0.996,10.83 L4.478,12.851 L2.652,17.232 C2.29,18.103 2.586,19.111 3.364,19.648 C3.708,19.884 4.103,20.002 4.499,20.002 C4.997,20.002 5.492,19.816 5.874,19.454 L13.374,12.351 C13.832,11.917 14.059,11.293 13.984,10.666 C13.911,10.039 13.546,9.483 13.002,9.168 L9.52,7.15 L11.309,2.857 C11.432,2.597 11.501,2.306 11.501,2 C11.501,0.898 10.611,0.004 9.5,1.77635684e-15 L9.5,0 Z" id="Shape" fill="#DA5A47" sketch:type="MSShapeGroup"></path>
    </g>
</svg>
